!!!COM: Corelli, Arcangelo
!!!OTL: 
!!!ONM: Opus 6, No. 9
!!!OMV: 5
!!!CDT: 1653/2/17/-1713/1/8/
!!!OCY: Italia
**kern	**kern	**kern	**kern	**kern	**kern	**kern
*clefC	*clefG	*clefG	*clefG	*clefC	*clefG	*clefG
*k[b-]	*k[b-]	*k[b-]	*k[b-]	*k[b-]	*k[b-]	*k[b-]
*d:	*d:	*d:	*d:	*d:	*d:	*d:
*M3/4	*M3/4	*M3/4	*M3/4	*M3/4	*M3/4	*M3/4
=1	=1	=1	=1	=1	=1	=1
2r	2r	2r	2r	2r	2r	2r
4D	4d	4f	4a	4D	4f	4a
=2	=2	=2	=2	=2	=2	=2
2.D	2.d	2.g	2.b-	2.D	2.g	2.b-
=3	=3	=3	=3	=3	=3	=3
2r	2r	2r	2r	2r	2r	2r
4D	4d	4g	4b-	4D	4g	4b-
=4	=4	=4	=4	=4	=4	=4
2.C#	2.e	2.g	2.a	2.C#	2.g	2.a
=5	=5	=5	=5	=5	=5	=5
2r	2r	2r	2r	2r	2r	2r
4d	4d	4f	4a	4d	4f	4a
=6	=6	=6	=6	=6	=6	=6
2.c	2.a	2.f#	2.d	2.c	2.f#	2.d
=7	=7	=7	=7	=7	=7	=7
2r	2r	2r	2r	2r	2r	2r
4B-	4d	4d	4g	4B-	4d	4g
=8	=8	=8	=8	=8	=8	=8
2.F#	2.d	2.d	2.a	2.F#	2.d	2.a
=9	=9	=9	=9	=9	=9	=9
2r	2r	2r	2r	2r	2r	2r
4G	4g	4d	4b-	4G	4d	4b-
=10	=10	=10	=10	=10	=10	=10
2C#	2g	2e	2a	2C#	2e	2a
[4D	[4f	[4f	[4a	[4D	[4f	[4a
=11	=11	=11	=11	=11	=11	=11
4D]	4f]	4f]	4a]	4D]	4f]	4a]
2BB-	2b-	2d	2g	2BB-	2d	2g
=12	=12	=12	=12	=12	=12	=12
2.AA	2.e	2.c#	2.a	2.AA	2.c#	2.a
==	==	==	==	==	==	==
*-	*-	*-	*-	*-	*-	*-
!!!RWG: This file only contains pitch and duration data.
!!!RWG: Transposing instruments are not transposed.
!!!RWG: Durations of rests and tied notes may be interpreted.
!!!RWG: Key is interpreted using the Humdrum key tool.
!!!SCA: 
!!!YOR: Chrysander Edition
!!!AGN: concerto grosso
!!!AFT: stage1
!!!ENC: F. Bennion
!!!END: 1997/04/15
!!!AST: baroque
!!!YEC: Copyright 1994, Center for Computer Assisted Research in the Humanities
!!!YEM: Rights to all derivative electronic formats reserved.
!!!YEM: Refer to licensing agreement for further details.
!!!YEN: United States of America
!!!EED: W.B. Hewlett
!!!KEY: 1731211864
!!!EMD: Converted from MuseData to Humdrum Aug 9, 1999, by Bret Aarden using muse2kern.
!!!VTS: 2511313606
